symbols-de/shields/motorway_4x3_z16.svg

<?xml version="1.0" encoding="UTF-8" standalone="no"?>
<svg
   xmlns:dc="http://purl.org/dc/elements/1.1/"
   xmlns:cc="http://creativecommons.org/ns#"
   xmlns:rdf="http://www.w3.org/1999/02/22-rdf-syntax-ns#"
   xmlns:svg="http://www.w3.org/2000/svg"
   xmlns="http://www.w3.org/2000/svg"
   xmlns:sodipodi="http://sodipodi.sourceforge.net/DTD/sodipodi-0.dtd"
   xmlns:inkscape="http://www.inkscape.org/namespaces/inkscape"
   width="100%"
   height="100%"
   viewBox="0 0 35.0 36.0"
   id="svg2"
   version="1.1"
   inkscape:version="0.91 r13725"
   sodipodi:docname="autobahn_4x3_z16.svg">
  <metadata
     id="metadata9">
    <rdf:RDF>
      <cc:Work
         rdf:about="">
        <dc:format>image/svg+xml</dc:format>
        <dc:type
           rdf:resource="http://purl.org/dc/dcmitype/StillImage" />
        <dc:title></dc:title>
      </cc:Work>
    </rdf:RDF>
  </metadata>
  <defs
     id="defs7" />
  <sodipodi:namedview
     pagecolor="#ffffff"
     bordercolor="#666666"
     borderopacity="1"
     objecttolerance="10"
     gridtolerance="10"
     guidetolerance="10"
     inkscape:pageopacity="0"
     inkscape:pageshadow="2"
     inkscape:window-width="1090"
     inkscape:window-height="737"
     id="namedview5"
     showgrid="false"
     inkscape:zoom="6.5555556"
     inkscape:cx="17.5"
     inkscape:cy="18.076271"
     inkscape:window-x="191"
     inkscape:window-y="424"
     inkscape:window-maximized="0"
     inkscape:current-layer="svg2" />
  <path
     style="fill:#365eaf;fill-opacity:1;stroke:#0528a2;stroke-width:1;stroke-miterlimit:4;stroke-dasharray:none;stroke-opacity:1"
     d="m 17.500001,0.4999981 c -0.243725,0 -0.365234,0.00357 -0.365234,0.012818 L 1.04913,2.4482408 C 0.683538,2.5410418 0.5,2.6813326 0.5,2.8669419 l 0,30.2661131 c 0,0.18561 0.183538,0.325896 0.54913,0.418701 l 16.085637,1.935424 c 0,0.0093 0.121511,0.01282 0.365234,0.01282 0.243728,0 0.365236,-0.0035 0.365236,-0.01282 l 16.085635,-1.935424 c 0.365593,-0.0928 0.46898,-0.24562 0.549129,-0.418701 0,-16.253566 0,-15.906183 0,-30.2661131 0,-0.1856093 -0.183536,-0.3258994 -0.549129,-0.4187011 L 17.865237,0.5128155 c 0,-0.00925 -0.121512,-0.012818 -0.365236,-0.012818 z"
     id="path6"
     inkscape:connector-curvature="0"
     sodipodi:nodetypes="sccccccsccccccs" />
</svg>

<?xml version="1.0" encoding="UTF-8"?>
<svg xmlns="http://www.w3.org/2000/svg" xmlns:xlink="http://www.w3.org/1999/xlink" width="34pt" height="48pt" viewBox="0 0 34 48" version="1.1">
<g id="surface1">
<path style="fill-rule:nonzero;fill:rgb(21.176471%,36.862745%,68.627451%);fill-opacity:1;stroke-width:1;stroke-linecap:butt;stroke-linejoin:miter;stroke:rgb(1.960784%,15.686275%,63.529412%);stroke-opacity:1;stroke-miterlimit:4;" d="M 17.5 0.500977 C 17.25471 0.500977 17.134076 0.503906 17.134076 0.512695 L 1.049517 2.449219 C 0.683594 2.540039 0.498621 2.680664 0.498621 2.868164 L 0.498621 33.131836 C 0.498621 33.319336 0.683594 33.459961 1.049517 33.550781 L 17.134076 35.487305 C 17.134076 35.496094 17.25471 35.499023 17.5 35.499023 C 17.74529 35.499023 17.865924 35.496094 17.865924 35.487305 L 33.950483 33.550781 C 34.316406 33.459961 34.420956 33.304688 34.501379 33.131836 C 34.501379 16.880859 34.501379 17.226562 34.501379 2.868164 C 34.501379 2.680664 34.316406 2.540039 33.950483 2.449219 L 17.865924 0.512695 C 17.865924 0.503906 17.74529 0.500977 17.5 0.500977 Z M 17.5 0.500977 " transform="matrix(0.971429,0,0,1.333333,0,0)"/>
</g>
</svg>
